img/svg/lotki-2.svg

<svg xmlns="http://www.w3.org/2000/svg" width="612" height="792" viewBox="0 0 612 792"><path fill-rule="evenodd" clip-rule="evenodd" fill="#fff" d="M275.63 365.63h60.74v60.74h-60.74v-60.74zm-2.63-2.63v66h66v-66h-66zm7.6 7.6h14.76v14.55h-14.76v-14.55zm17.74 0h15.54v14.55h-15.54v-14.55zm18.51.22h14.77v14.54h-14.77v-14.54zm-36.25 17.3h14.76v15.51h-14.76v-15.51zm17.74 0h15.76v15.51h-15.76v-15.51zm18.6.27h14.68v15.49h-14.68v-15.49zm-36.34 18.28h14.76v14.51h-14.76v-14.51zm17.74 0h15.76v14.51h-15.76v-14.51zm18.6.24h14.68v14.49h-14.68v-14.49z"/></svg>

<?xml version="1.0" encoding="utf-8"?>
<!-- Generator: Adobe Illustrator 14.0.0, SVG Export Plug-In . SVG Version: 6.00 Build 43363)  -->
<!DOCTYPE svg PUBLIC "-//W3C//DTD SVG 1.1//EN" "http://www.w3.org/Graphics/SVG/1.1/DTD/svg11.dtd">
<svg version="1.1" id="Layer_1" xmlns="http://www.w3.org/2000/svg" xmlns:xlink="http://www.w3.org/1999/xlink" x="0px" y="0px"
	 width="612px" height="792px" viewBox="0 0 612 792" enable-background="new 0 0 612 792" xml:space="preserve">
<path fill-rule="evenodd" clip-rule="evenodd" fill="#FFFFFF" d="M275.63,365.63h60.74v60.74h-60.74V365.63z M273,363v66h66v-66H273
	z M280.6,370.6h14.76v14.55H280.6V370.6z M298.34,370.6h15.54v14.55h-15.54V370.6z M316.85,370.82h14.77v14.54h-14.77V370.82z
	 M280.6,388.12h14.76v15.51H280.6V388.12z M298.34,388.12h15.76v15.51h-15.76V388.12z M316.94,388.39h14.68v15.49h-14.68V388.39z
	 M280.6,406.67h14.76v14.51H280.6V406.67z M298.34,406.67h15.76v14.51h-15.76V406.67z M316.94,406.91h14.68v14.49h-14.68V406.91z"/>
</svg>
